images/play-button.svg

<svg width="512" height="512" xmlns="http://www.w3.org/2000/svg">

 <g>
  <title>background</title>
  <rect fill="none" id="canvas_background" height="402" width="582" y="-1" x="-1"/>
 </g>
 <g>
  <title>Layer 1</title>
  <g id="svg_1">
   <g id="svg_2">
    <g id="svg_3">
     <path fill="#ffffff" id="svg_4" d="m256,0c-141.167,0 -256,114.844 -256,256s114.833,256 256,256s256,-114.844 256,-256s-114.833,-256 -256,-256zm0,490.667c-129.396,0 -234.667,-105.271 -234.667,-234.667s105.271,-234.667 234.667,-234.667s234.667,105.271 234.667,234.667s-105.271,234.667 -234.667,234.667z"/>
     <path fill="#ffffff" id="svg_5" d="m357.771,247.031l-149.333,-96c-3.271,-2.135 -7.5,-2.25 -10.875,-0.396c-3.438,1.875 -5.563,5.459 -5.563,9.365l0,192c0,3.906 2.125,7.49 5.563,9.365c1.583,0.865 3.354,1.302 5.104,1.302c2,0 4.021,-0.563 5.771,-1.698l149.333,-96c3.042,-1.958 4.896,-5.344 4.896,-8.969s-1.854,-7.01 -4.896,-8.969zm-144.438,85.427l0,-152.916l118.938,76.458l-118.938,76.458z"/>
    </g>
   </g>
  </g>
  <g id="svg_6"/>
  <g id="svg_7"/>
  <g id="svg_8"/>
  <g id="svg_9"/>
  <g id="svg_10"/>
  <g id="svg_11"/>
  <g id="svg_12"/>
  <g id="svg_13"/>
  <g id="svg_14"/>
  <g id="svg_15"/>
  <g id="svg_16"/>
  <g id="svg_17"/>
  <g id="svg_18"/>
  <g id="svg_19"/>
  <g id="svg_20"/>
 </g>
</svg>

<?xml version="1.0" encoding="iso-8859-1"?>
<!-- Generator: Adobe Illustrator 19.0.0, SVG Export Plug-In . SVG Version: 6.00 Build 0)  -->
<svg version="1.1" id="Layer_1" xmlns="http://www.w3.org/2000/svg" xmlns:xlink="http://www.w3.org/1999/xlink" x="0px" y="0px"
	 viewBox="0 0 512 512" style="enable-background:new 0 0 512 512;" xml:space="preserve">
<g>
	<g>
		<g>
			<path d="M256,0C114.833,0,0,114.844,0,256s114.833,256,256,256s256-114.844,256-256S397.167,0,256,0z M256,490.667
				C126.604,490.667,21.333,385.396,21.333,256S126.604,21.333,256,21.333S490.667,126.604,490.667,256S385.396,490.667,256,490.667
				z"/>
			<path d="M357.771,247.031l-149.333-96c-3.271-2.135-7.5-2.25-10.875-0.396C194.125,152.51,192,156.094,192,160v192
				c0,3.906,2.125,7.49,5.563,9.365c1.583,0.865,3.354,1.302,5.104,1.302c2,0,4.021-0.563,5.771-1.698l149.333-96
				c3.042-1.958,4.896-5.344,4.896-8.969S360.813,248.99,357.771,247.031z M213.333,332.458V179.542L332.271,256L213.333,332.458z"
				/>
		</g>
	</g>
</g>
<g>
</g>
<g>
</g>
<g>
</g>
<g>
</g>
<g>
</g>
<g>
</g>
<g>
</g>
<g>
</g>
<g>
</g>
<g>
</g>
<g>
</g>
<g>
</g>
<g>
</g>
<g>
</g>
<g>
</g>
</svg>
